cssgg/smile-neutral.svg

<svg
  width="24"
  height="24"
  viewBox="0 0 24 24"
  fill="none"
  xmlns="http://www.w3.org/2000/svg"
>
  <path
    d="M9 11C9.55228 11 10 10.5523 10 10C10 9.44772 9.55228 9 9 9C8.44772 9 8 9.44772 8 10C8 10.5523 8.44772 11 9 11Z"
    fill="currentColor"
  />
  <path
    d="M9 15C8.44772 15 8 15.4477 8 16C8 16.5523 8.44772 17 9 17H15C15.5523 17 16 16.5523 16 16C16 15.4477 15.5523 15 15 15H9Z"
    fill="currentColor"
  />
  <path
    d="M16 10C16 10.5523 15.5523 11 15 11C14.4477 11 14 10.5523 14 10C14 9.44772 14.4477 9 15 9C15.5523 9 16 9.44772 16 10Z"
    fill="currentColor"
  />
  <path
    fill-rule="evenodd"
    clip-rule="evenodd"
    d="M22 12C22 17.5228 17.5228 22 12 22C6.47715 22 2 17.5228 2 12C2 6.47715 6.47715 2 12 2C17.5228 2 22 6.47715 22 12ZM20 12C20 16.4183 16.4183 20 12 20C7.58172 20 4 16.4183 4 12C4 7.58172 7.58172 4 12 4C16.4183 4 20 7.58172 20 12Z"
    fill="currentColor"
  />
</svg>

<svg viewBox="0 0 24 24" xmlns="http://www.w3.org/2000/svg"><g><path d="M9 11c.55 0 1-.45 1-1 0-.56-.45-1-1-1 -.56 0-1 .44-1 1 0 .55.44 1 1 1Z"/><path d="M9 15c-.56 0-1 .44-1 1 0 .55.44 1 1 1h6c.55 0 1-.45 1-1 0-.56-.45-1-1-1H9Z"/><path d="M16 10c0 .55-.45 1-1 1 -.56 0-1-.45-1-1 0-.56.44-1 1-1 .55 0 1 .44 1 1Z"/><path fill-rule="evenodd" d="M22 12c0 5.52-4.48 10-10 10C6.47 22 2 17.52 2 12 2 6.47 6.47 2 12 2c5.52 0 10 4.47 10 10Zm-2 0c0 4.41-3.59 8-8 8 -4.42 0-8-3.59-8-8 0-4.42 3.58-8 8-8 4.41 0 8 3.58 8 8Z"/></g></svg>
